polaris-icons/icons/new-icons/SoftPackMajor.svg

<svg width="20" height="20" viewBox="0 0 20 20" fill="none" xmlns="http://www.w3.org/2000/svg">
<path d="M8.75 6C8.33579 6 8 6.33579 8 6.75C8 7.16421 8.33579 7.5 8.75 7.5H11.25C11.6642 7.5 12 7.16421 12 6.75C12 6.33579 11.6642 6 11.25 6H8.75Z" fill="#4A4A4A"/>
<path d="M6.5 11.25C6.5 10.8358 6.83579 10.5 7.25 10.5H9.75C10.1642 10.5 10.5 10.8358 10.5 11.25C10.5 11.6642 10.1642 12 9.75 12H7.25C6.83579 12 6.5 11.6642 6.5 11.25Z" fill="#4A4A4A"/>
<path d="M7.25 13C6.83579 13 6.5 13.3358 6.5 13.75C6.5 14.1642 6.83579 14.5 7.25 14.5H11.75C12.1642 14.5 12.5 14.1642 12.5 13.75C12.5 13.3358 12.1642 13 11.75 13H7.25Z" fill="#4A4A4A"/>
<path fill-rule="evenodd" clip-rule="evenodd" d="M6.75 3C5.23122 3 4 4.23122 4 5.75V14.25C4 15.7688 5.23122 17 6.75 17H13.25C14.7688 17 16 15.7688 16 14.25V5.75C16 4.23122 14.7688 3 13.25 3H6.75ZM5.5 7.5H6.25C6.66421 7.5 7 7.16421 7 6.75C7 6.33579 6.66421 6 6.25 6H5.5V5.75C5.5 5.05964 6.05964 4.5 6.75 4.5H13.25C13.9404 4.5 14.5 5.05964 14.5 5.75V6H13.75C13.3358 6 13 6.33579 13 6.75C13 7.16421 13.3358 7.5 13.75 7.5H14.5V14.25C14.5 14.9404 13.9404 15.5 13.25 15.5H6.75C6.05964 15.5 5.5 14.9404 5.5 14.25V7.5Z" fill="#4A4A4A"/>
</svg>

<svg viewBox="0 0 20 20" xmlns="http://www.w3.org/2000/svg"><path d="M8.75 6a.75.75 0 0 0 0 1.5h2.5a.75.75 0 0 0 0-1.5h-2.5Z" fill="#5C5F62"/><path d="M6.5 11.25a.75.75 0 0 1 .75-.75h2.5a.75.75 0 0 1 0 1.5h-2.5a.75.75 0 0 1-.75-.75Z" fill="#5C5F62"/><path d="M7.25 13a.75.75 0 0 0 0 1.5h4.5a.75.75 0 0 0 0-1.5h-4.5Z" fill="#5C5F62"/><path fill-rule="evenodd" d="M6.75 3a2.75 2.75 0 0 0-2.75 2.75v8.5a2.75 2.75 0 0 0 2.75 2.75h6.5a2.75 2.75 0 0 0 2.75-2.75v-8.5a2.75 2.75 0 0 0-2.75-2.75h-6.5Zm-1.25 4.5h.75a.75.75 0 0 0 0-1.5h-.75v-.25c0-.69.56-1.25 1.25-1.25h6.5c.69 0 1.25.56 1.25 1.25v.25h-.75a.75.75 0 0 0 0 1.5h.75v6.75c0 .69-.56 1.25-1.25 1.25h-6.5c-.69 0-1.25-.56-1.25-1.25v-6.75Z" fill="#5C5F62"/></svg>
